X: 64
T:Rapers Hornpipe. GHW.064
M:2/4
L:1/8
Q:360
S:George H.Watson,MS,Swanton Abbott,Norfolk,1850-1880
R:Hornpipe
O:England
A:Norfolk
Z:vmp.Taz Tarry
K:G
dc|(BA).B.A (dg).d.B|(cB).A.G FGAc|(BA)Bd gabg|(3(agf) (3(gfe) d2 dc|!
(BA)BA (dg)dB|(cB)AG (FG)Ac|(Bd)BG (Ec)AF|G2G2G2:|!
|:AG|(FG)AB (cB)AG|(GA)Bc (dB)GB|(cd)ed (cB)AG|(3(AGF) (3(GFE) D2 (dc)|!
(BA)BA (dg)dB|(cB)AG (FG)Ac|(Bd)BG EcAF|G2G2G2:|
